X: 20
T: No_28_Flower_Dance_Song.krn
N: Derived from No_28_Flower_Dance_Song.krn
%%abc-version 2.0
%%abcx-abcm2ps-target-version 5.9.1 (29 Sep 2008)
%%abc-creator hum2abc beta
%%abcx-conversion-date 2019/03/15 08:25:35
%%humdrum-veritas 2333512527
%%humdrum-veritas-data 1320236619
%%linebreak <none>
%%barnumbers 0
L: 1/4
M: 2/4
%%staves {1 2}
V: 1 clef=bass
V: 2 clef=bass
K: B
[V:1] [K:clef=bass][M:2/4]G,G,/G,/ | 
[V:2] [K:clef=bass][M:2/4]G,,G,, | 
[V:1] [M:3/4]G,G,G, ]|:  
[V:2] [M:3/4]G,,G,,G,, ]|:  
[V:1] G,/D/ D/D/ D/D//C// | 
[V:2] G,,G,,G,, | 
[V:1] [M:2/4]B,B, | 
[V:2] [M:2/4]G,,G,, | 
[V:1] [M:5/8]B,//G,//G,/G,/G, | 
[V:2] [M:5/8]G,,G,,/G,, | 
[V:1] [M:3/4]G,/C/ C/C/ (3C/B,/D/ | 
[V:2] [M:3/4]G,,G,,G,, | 
[V:1] CC/ z/B, | 
[V:2] G,,G,,G,, | 
[V:1] [M:5/8]B,//G,//G,/G,/G, | 
[V:2] [M:5/8]G,,G,,/G,, | 
[V:1] [M:3/4]G,/C/ C/B,/ B,/C/ | 
[V:2] [M:3/4]G,,G,,G,, | 
[V:1] [M:2/4]B,B,/C/ | 
[V:2] [M:2/4]zG,, | 
[V:1] B,//G,3// G,/G,/ | 
[V:2] G,,G,, | 
[V:1] [M:3/4]G,G,G,/ z/ :|]  
[V:2] [M:3/4]G,,G,,G,, :|]  
[V:1] [M:2/4]G,G, | 
[V:2] [M:2/4]G,,G,, | 
[V:1] G,z ]|:  
[V:2] G,,z ]|:  
[V:1] [M:3/4]G/D/GG | 
[V:2] [M:3/4]G,,G,,G,, | 
[V:1] [M:2/4](3G/D/D/ (3D/C/C/ | 
[V:2] [M:2/4]G,,G,, | 
[V:1] C/B,/D | 
[V:2] G,,G,, | 
[V:1] C/B,/D | 
[V:2] G,,G,, | 
[V:1] C(3C/B,/B,/ | 
[V:2] G,,G,, | 
[V:1] [M:3/8]C/C/C// z// | 
[V:2] [M:3/8]G,,G,,/ | 
[V:1] [M:2/4]G/D/G | 
[V:2] [M:2/4]G,,G,, | 
[V:1] D/C/D | 
[V:2] G,,G,, | 
[V:1] C/B,/D | 
[V:2] G,,G,, | 
[V:1] C(3C/B,/B,/ | 
[V:2] G,,G,, | 
[V:1] [M:5/8]B,/G,/G,/G,/ z/ | 
[V:2] [M:5/8]G,,G,,/z | 
[V:1] [M:2/4]D/D/ C/C/ | 
[V:2] [M:2/4]G,,G,, | 
[V:1] B,/B,/G, | 
[V:2] G,,G,, | 
[V:1] D/D/ C/C/ | 
[V:2] G,,G,, | 
[V:1] B,/B,/ G,/C/ | 
[V:2] G,,G,, | 
[V:1] B,//G,3// G,/G,/ | 
[V:2] G,,G,, | 
[V:1] [M:3/4]G,G,G,/ z/ :|]  
[V:2] [M:3/4]G,,G,,G,, :|]  
[V:1] [M:2/4]G,G, | 
[V:2] [M:2/4]G,,G,, | 
[V:1] B,B,/B,/ | 
[V:2] G,,G,, | 
[V:1] B,/B,/ B,/B,/ | 
[V:2] G,,G,, | 
[V:1] B,//G,3// G,/G,/ | 
[V:2] G,,G,, | 
[V:1] [M:3/4]G,/G,/G,G,/ z/ |]  
[V:2] [M:3/4]G,,G,,G,, |]  



